examples/demo-composable-pfp/assets/clothing/hoodie.svg

<?xml version="1.0" encoding="UTF-8"?>
<svg width="264px" height="280px" viewBox="0 0 264 280" version="1.1" xmlns="http://www.w3.org/2000/svg" xmlns:xlink="http://www.w3.org/1999/xlink">
    <!-- Generator: Sketch 58 (84663) - https://sketch.com -->
    <title>EDIT ME</title>
    <desc>Created with Sketch.</desc>
    <defs>
        <path d="M187.997478,34.7419477 L187.994775,34.6445513 C213.853089,45.5674185 232,71.1642325 232,100.999485 L232,110 L32,110 L32,100.999485 C32,71.1638494 50.1473773,45.5667611 76.0062213,34.6441305 C76.281568,20.5515788 90.0823522,15.075879 108.000323,13.0708785 L108,32 C108,45.254834 118.745166,56 132,56 C145.254834,56 156,45.254834 156,32 L156,32 L156.001405,13.0710429 C173.960465,15.0808175 187.783368,20.5773078 187.997478,34.7419477 Z" id="path-1"></path>
    </defs>
    <g id="EDIT-ME" stroke="none" stroke-width="1" fill="none" fill-rule="evenodd">
        <g id="Clothing/Hoodie" transform="translate(0.000000, 170.000000)">
            <mask id="mask-2" fill="white">
                <use xlink:href="#path-1"></use>
            </mask>
            <use id="Hoodie" fill="#B7C1DB" fill-rule="evenodd" xlink:href="#path-1"></use>
            <g id="Color/Palette/Blue-01" mask="url(#mask-2)" fill="#65C9FF" fill-rule="evenodd">
                <rect id="🖍Color" x="0" y="0" width="264" height="110"></rect>
            </g>
            <path d="M101.999618,61.7388852 L102,110 L95,110 L94.9990839,58.149718 C97.2029904,59.4596568 99.5461861,60.6605136 101.999618,61.7388852 Z M169.001367,58.1494501 L169,98.5 C169,100.432997 167.432997,102 165.5,102 C163.567003,102 162,100.432997 162,98.5 L162.001384,61.7384448 C164.454619,60.6601132 166.797629,59.4593148 169.001367,58.1494501 Z" id="Straps" fill="#F4F4F4" fill-rule="evenodd" mask="url(#mask-2)"></path>
            <path d="M132,68 L130.99629,67.9952183 C97.8802308,67.680027 65.5,51.8228864 65.5,32.3076923 C65.5,21.2431784 75.908757,15.5714792 90.9589345,12.7245804 C81.8748056,16.0747223 76,21.706273 76,31.0769231 C76,51.4689754 103.821205,68 132,68 Z M132,68 C160.178795,68 188,51.4689754 188,31.0769231 C188,21.706273 182.125194,16.0747223 173.040502,12.724588 C188.091243,15.5714792 198.5,21.2431784 198.5,32.3076923 C198.5,52.0200095 165.462319,68 132,68 L132,68 Z" id="Shadow" fill-opacity="0.16" fill="#000000" fill-rule="evenodd" mask="url(#mask-2)"></path>
        </g>
    </g>
</svg>

<svg xmlns="http://www.w3.org/2000/svg" xmlns:xlink="http://www.w3.org/1999/xlink" width="264" height="280"><defs><path id="7e69b983__a" d="m187.997 34.742-.002-.097C213.853 45.567 232 71.165 232 100.999V110H32v-9c0-29.836 18.147-55.433 44.006-66.356.276-14.092 14.076-19.568 31.994-21.573V32c0 13.255 10.745 24 24 24s24-10.745 24-24l.001-18.929c17.96 2.01 31.782 7.506 31.996 21.67"/></defs><g fill="none" fill-rule="evenodd" transform="translate(0 170)"><mask id="bc367eb2__b" fill="#fff"><use xlink:href="#7e69b983__a"/></mask><use xlink:href="#7e69b983__a" fill="#B7C1DB"/><g fill="#65C9FF" mask="url(#bc367eb2__b)"><path d="M0 0h264v110H0z"/></g><path fill="#F4F4F4" d="M102 61.739V110h-7V58.15a65 65 0 0 0 7 3.589M169 58.149 169 98.5a3.5 3.5 0 1 1-7 0l.001-36.762a65 65 0 0 0 7-3.589" mask="url(#bc367eb2__b)"/><path fill="#000" fill-opacity=".16" d="m132 68-1.004-.005C97.88 67.68 65.5 51.823 65.5 32.308c0-11.065 10.409-16.737 25.459-19.583C81.875 16.075 76 21.706 76 31.077 76 51.469 103.821 68 132 68m0 0c28.179 0 56-16.531 56-36.923 0-9.37-5.875-15.002-14.96-18.352 15.051 2.846 25.46 8.518 25.46 19.583C198.5 52.02 165.462 68 132 68" mask="url(#bc367eb2__b)"/></g></svg>
